X:103
T:Garden of Lesmore
S:John Moore's Book 2
Z:Transcribed by Steve Mansfield 05/2021
%%VWML: Moore2-4494-p80-0
F:http://www.vwml.org/record/Moore2/4494/p80
N:1 Barline here in Mss, removed editorially
N:2 Repeat sign here in Mss
M:2/4
L:1/8
K:D
A2 "*"E>A | c>A e>c | a>c e>c | B/B/B B2 | 
A2 E>A | c>A e>c | d>B e>c | A/A/A A2 :| 
a2 e>c | a>c e>c | a>c e>c | B/B/B B2 | 
a2 e>c | A>e c>a | e>c B>c | A/A/A A2 || 
A/B/c c>c | B/c/d d>d | c/d/e e>e | G/B/B B>B | 
A/B/c c>c | B/c/d d>d | c>a e>c | A/A/A A2 ||
(f/g/)a a>a | (g/f/)e e>e | (d/e/)f f>f | (e/d/)c c>c | 
(B/c/)d d>d | c>a e>c | B>A B>c | A/A/A A2 "*2"|] 

